src/img/candado bloqueado acordeon.svg

<svg width="32" height="34" viewBox="0 0 32 34" fill="none" xmlns="http://www.w3.org/2000/svg">
<path d="M11.9922 11.0805H11.0078C11.0078 11.0805 11.0078 11.018 11.0078 10.893C11.0078 10.768 11.0078 10.6586 11.0078 10.5648C11.0078 9.33047 11.4453 8.27579 12.3203 7.40079C13.1953 6.51016 14.2578 6.06485 15.5078 6.06485C16.7422 6.06485 17.7969 6.51016 18.6719 7.40079C19.5625 8.27579 20.0078 9.33047 20.0078 10.5648C20.0078 10.6586 20.0078 10.768 20.0078 10.893C20.0078 11.018 20.0078 11.0805 20.0078 11.0805H19C19 11.0805 19 11.018 19 10.893C19 10.768 19 10.6586 19 10.5648C19 9.5961 18.6562 8.77579 17.9688 8.10391C17.2969 7.41641 16.4766 7.07266 15.5078 7.07266C14.5391 7.07266 13.7109 7.41641 13.0234 8.10391C12.3359 8.77579 11.9922 9.5961 11.9922 10.5648C11.9922 10.6586 11.9922 10.768 11.9922 10.893C11.9922 11.018 11.9922 11.0805 11.9922 11.0805ZM17.0078 18.5805C17.0078 18.1586 16.8594 17.807 16.5625 17.5258C16.2656 17.2289 15.9141 17.0805 15.5078 17.0805C15.0859 17.0805 14.7266 17.2289 14.4297 17.5258C14.1484 17.807 14.0078 18.1586 14.0078 18.5805C14.0078 18.8461 14.0703 19.0961 14.1953 19.3305C14.3359 19.5492 14.5156 19.7289 14.7344 19.8695L14.0078 22.0727H17.0078L16.2578 19.8695C16.4766 19.7289 16.6562 19.5492 16.7969 19.3305C16.9375 19.0961 17.0078 18.8461 17.0078 18.5805ZM23.0078 15.0648V23.0805C23.0078 23.9086 22.7109 24.6117 22.1172 25.1898C21.5391 25.7836 20.8359 26.0805 20.0078 26.0805H11.0078C10.1797 26.0805 9.46875 25.7836 8.875 25.1898C8.29688 24.6117 8.00781 23.9086 8.00781 23.0805V15.0648C8.00781 14.2367 8.29688 13.5336 8.875 12.9555C9.46875 12.3617 10.1797 12.0648 11.0078 12.0648H20.0078C20.8359 12.0648 21.5391 12.3617 22.1172 12.9555C22.7109 13.5336 23.0078 14.2367 23.0078 15.0648ZM22 15.0648C22 14.518 21.8047 14.0492 21.4141 13.6586C21.0234 13.268 20.5547 13.0727 20.0078 13.0727H11.0078C10.4453 13.0727 9.96875 13.268 9.57812 13.6586C9.1875 14.0492 8.99219 14.518 8.99219 15.0648V23.0805C8.99219 23.6273 9.1875 24.0961 9.57812 24.4867C9.96875 24.8773 10.4453 25.0727 11.0078 25.0727H20.0078C20.5547 25.0727 21.0234 24.8773 21.4141 24.4867C21.8047 24.0961 22 23.6273 22 23.0805V15.0648Z" fill="#EC7000"/>
</svg>

<svg width="32" height="34" fill="none" xmlns="http://www.w3.org/2000/svg"><path d="M11.992 11.08h-.984v-.515c0-1.235.437-2.29 1.312-3.164.875-.89 1.938-1.336 3.188-1.336 1.234 0 2.289.445 3.164 1.336.89.875 1.336 1.93 1.336 3.164v.516H19v-.516c0-.969-.344-1.79-1.031-2.461-.672-.688-1.492-1.031-2.461-1.031-.969 0-1.797.343-2.485 1.03-.687.673-1.03 1.493-1.03 2.462v.516zm5.016 7.5c0-.421-.149-.773-.445-1.054a1.441 1.441 0 00-1.055-.445c-.422 0-.781.148-1.078.445a1.43 1.43 0 00-.422 1.055c0 .265.062.515.187.75.14.218.32.398.54.538l-.727 2.204h3l-.75-2.204c.219-.14.398-.32.539-.538.14-.235.21-.485.21-.75zm6-3.515v8.016c0 .828-.297 1.53-.89 2.109a2.833 2.833 0 01-2.11.89h-9c-.828 0-1.54-.296-2.133-.89a2.871 2.871 0 01-.867-2.11v-8.015c0-.828.289-1.531.867-2.11.594-.593 1.305-.89 2.133-.89h9c.828 0 1.531.297 2.11.89.593.579.89 1.282.89 2.11zm-1.008 0c0-.547-.195-1.016-.586-1.406a1.916 1.916 0 00-1.406-.586h-9c-.563 0-1.04.195-1.43.586-.39.39-.586.859-.586 1.406v8.016c0 .546.195 1.015.586 1.406.39.39.867.586 1.43.586h9a1.92 1.92 0 001.406-.586c.39-.39.586-.86.586-1.406v-8.016z" fill="#EC7000"/></svg>
